!!!OTL: BEI NAECHTLICHER WEIL
!!!ARE: Europa, Mitteleuropa, Deutschland
!!!SCT: Z0075
!!!YEM: Copyright 1995, estate of Helmut Schaffrath.
**kern
*ICvox
*Ivox
*M3/8
*k[b-e-]
*B-:
{8ff
=1
8.ff
16ee-
8dd
=2
8gg
8ff
8ff
=3
8ff
8ee-
8dd
=4
4cc}
{16ff
16ff
=5
8.ff
16ee-
8dd
=6
8gg
8ff
8ee-
=7
8.dd
16ee-
8dd
=8
4cc}
{16cc
16cc
=9
8cc
8dd
8ee-
=10
8ee-
8dd
8ff
=11
8.ff
16ee-
8dd
=12
4cc}
{16ff
16ff
=13
8ff
8dd
8b-
=14
8gg
8ee-
8cc
=15
4dd
8cc
=16
4b-
8dd
=17
4ff
8ee-
=18
4dd}
==
!!!AGN: Sagen - Lied, Romanze, Tod
!!!ONB: ESAC (Essen Associative Code) Database: ZUCCAL
!!!AMT: simple triple
!!!AIN: vox
!!!EED: Helmut Schaffrath
!!!EEV: 1.0
*-
